**kern	**silbe	**kern	**silbe	**harmony	**chordsym	**phrase	**timestamp	**leadinstrument
*ICvox	*	*ICvox	*	*M4/4	*M4/4	*	*	*
*	*	*	*	*D-:	*D-:	*	*	*
=1	=1	=1	=1	=1	=1	=1	=1	=1
*D-:	*	*D-:	*	*	*	*	*	*
*M4/4	*	*M4/4	*	*	*	*	*	*
*clefF4	*	*clefF4	*	*	*	*	*	*
1r	.	1r	.	1r;	r	.	0	r
=2	=2	=2	=2	=2	=2	=2	=2	=2
*	*	*	*	*>A_intro	*>A_intro	*>A_intro	*>A_intro	*>A_intro
1r	.	1r	.	1D-Mm	D-:1 (D-)	newline	0.998	guitar
=3	=3	=3	=3	=3	=3	=3	=3	=3
1r	.	1r	.	1D-Mm	D-:1 (D-)	.	.	guitar
=4	=4	=4	=4	=4	=4	=4	=4	=4
1r	.	1r	.	1D-Mm	D-:1 (D-)	.	.	guitar
=5	=5	=5	=5	=5	=5	=5	=5	=5
1r	.	1r	.	1D-Mm	D-:1 (D-)	.	.	guitar
=6	=6	=6	=6	=6	=6	=6	=6	=6
1r	.	1r	.	1D-Mm	D-:1 (D-)	.	.	guitar
=7	=7	=7	=7	=7	=7	=7	=7	=7
1r	.	1r	.	1D-Mm	D-:1 (D-)	.	.	guitar
=8	=8	=8	=8	=8	=8	=8	=8	=8
1r	.	1r	.	1D-Mm	D-:1 (D-)	.	.	guitar
=9	=9	=9	=9	=9	=9	=9	=9	=9
4d-	Sun-	1r	.	1D-Mm	D-:1 (D-)	.	.	guitar
[4d-	-shine	.	.	.	.	.	.	.
8d-]	_	.	.	.	.	.	.	.
4c	came	.	.	.	.	.	.	.
[8c-	soft	.	.	.	.	.	.	.
=10	=10	=10	=10	=10	=10	=10	=10	=10
*	*	*	*	*>B_verse	*>B_verse	*>B_verse	*>B_verse	*>B_verse
8c-]	_	1r	.	1D-Mm	D-:7 (D- F A- C-)	newline	15.908	voice
4D-	ly	.	.	.	.	.	.	.
8D-	a-	.	.	.	.	.	.	.
8F	-through	.	.	.	.	.	.	.
4.A-	my	.	.	.	.	.	.	.
=11	=11	=11	=11	=11	=11	=11	=11	=11
4r	.	1r	.	1D-Mm	D-:7 (D- F A- C-)	.	.	voice
8r	.	.	.	.	.	.	.	.
8D-	a-	.	.	.	.	.	.	.
8d-	-win-	.	.	.	.	.	.	.
8d-	-dow	.	.	.	.	.	.	.
8c	to-	.	.	.	.	.	.	.
[8c-	-day	.	.	.	.	.	.	.
=12	=12	=12	=12	=12	=12	=12	=12	=12
4c-]	_	1r	.	1D-Mm	D-:7 (D- F A- C-)	.	.	voice
4r	.	.	.	.	.	.	.	.
2r	.	.	.	.	.	.	.	.
=13	=13	=13	=13	=13	=13	=13	=13	=13
4r	.	1r	.	1D-Mm	D-:7 (D- F A- C-)	.	.	voice
8d-	Could-	.	.	.	.	.	.	.
8d-	-'ve	.	.	.	.	.	.	.
8d-	tripped	.	.	.	.	.	.	.
4c	out	.	.	.	.	.	.	.
[8c-	ea	.	.	.	.	.	.	.
=14	=14	=14	=14	=14	=14	=14	=14	=14
8c-]	_	1r	.	1D-Mm	D-:7 (D- F A- C-)	.	.	voice
4D-	sy	.	.	.	.	.	.	.
8D-	a-	.	.	.	.	.	.	.
8F	-but	.	.	.	.	.	.	.
4.A-	I've	.	.	.	.	.	.	.
=15	=15	=15	=15	=15	=15	=15	=15	=15
4r	.	1r	.	1D-Mm	D-:7 (D- F A- C-)	.	.	voice
8r	.	.	.	.	.	.	.	.
8D-	I	.	.	.	.	.	.	.
6d-	changed	.	.	.	.	.	.	.
6c	my	.	.	.	.	.	.	.
[6c-	ways	.	.	.	.	.	.	.
=16	=16	=16	=16	=16	=16	=16	=16	=16
4c-]	_	1r	.	1D-Mm	D-:7 (D- F A- C-)	.	.	voice
4r	.	.	.	.	.	.	.	.
2r	.	.	.	.	.	.	.	.
=17	=17	=17	=17	=17	=17	=17	=17	=17
2r	.	1r	.	1D-Mm	D-:7 (D- F A- C-)	.	.	voice
8d-	It-	.	.	.	.	.	.	.
8d-	-'ll	.	.	.	.	.	.	.
8c-	take	.	.	.	.	.	.	.
[8B-	time,	.	.	.	.	.	.	.
=18	=18	=18	=18	=18	=18	=18	=18	=18
8B-]	_	1r	.	1G-Mm	G-:7 (G- B- D- F-)	newline	30.496	voice
4D-	I	.	.	.	.	.	.	.
[8G-	know	.	.	.	.	.	.	.
8G-]	_	.	.	.	.	.	.	.
4B-	it	.	.	.	.	.	.	.
8r	.	.	.	.	.	.	.	.
=19	=19	=19	=19	=19	=19	=19	=19	=19
2r	.	1r	.	1G-Mm	G-:7 (G- B- D- F-)	.	.	voice
8d-	but	.	.	.	.	.	.	.
8d-	in	.	.	.	.	.	.	.
8c-	a	.	.	.	.	.	.	.
[8B-	while	.	.	.	.	.	.	.
=20	=20	=20	=20	=20	=20	=20	=20	=20
2B-]	_	1r	.	1G-Mm	G-:7 (G- B- D- F-)	.	.	voice
2r	.	.	.	.	.	.	.	.
=21	=21	=21	=21	=21	=21	=21	=21	=21
4r	.	1r	.	1G-Mm	G-:7 (G- B- D- F-)	.	.	voice
8r	.	.	.	.	.	.	.	.
8D-	you're	.	.	.	.	.	.	.
8d-	gon-	.	.	.	.	.	.	.
8d-	-na	.	.	.	.	.	.	.
8c	be	.	.	.	.	.	.	.
[8c-	mine,	.	.	.	.	.	.	.
=22	=22	=22	=22	=22	=22	=22	=22	=22
4.c-]	_	1r	.	1D-Mm	D-:7 (D- F A- C-)	newline	37.642	voice
8D-	I	.	.	.	.	.	.	.
8F	know	.	.	.	.	.	.	.
4A-	it	.	.	.	.	.	.	.
8r	.	.	.	.	.	.	.	.
=23	=23	=23	=23	=23	=23	=23	=23	=23
4r	.	1r	.	1D-Mm	D-:7 (D- F A- C-)	.	.	voice
8r	.	.	.	.	.	.	.	.
8D-	we'll	.	.	.	.	.	.	.
8d-	do	.	.	.	.	.	.	.
8d-	it	.	.	.	.	.	.	.
8c	in	.	.	.	.	.	.	.
[8c-	style	.	.	.	.	.	.	.
=24	=24	=24	=24	=24	=24	=24	=24	=24
2c-]	_	1r	.	1D-Mm	D-:7 (D- F A- C-)	.	.	voice
2r	.	.	.	.	.	.	.	.
=25	=25	=25	=25	=25	=25	=25	=25	=25
4A-	'Cuz	4c	_	1D-Mm	D-:7 (D- F A- C-)	.	.	voice
4A-	I	4c	_	.	.	.	.	.
4A-	made	4c	_	.	.	.	.	.
4A-	my	4c	_	.	.	.	.	.
=26	=26	=26	=26	=26	=26	=26	=26	=26
*	*	*	*	*>C_chorus	*>C_chorus	*>C_chorus	*>C_chorus	*>C_chorus
2A-	mind	2c	_	1A-Mm	A-:7 (A- C E- G-)	newline	44.908	voice
8A-	up,	4c	_	.	.	.	.	.
8A-	y-	.	.	.	.	.	.	.
4A-	-you're	4c	_	.	.	.	.	.
=27	=27	=27	=27	=27	=27	=27	=27	=27
4d-	go-	4d-	_	1A-Mm	A-:7 (A- C E- G-)	.	.	voice
4D-	-ing	4D-	_	.	.	.	.	.
8D-	to	8D-	_	.	.	.	.	.
4D-	be	4D-	_	.	.	.	.	.
[8D-	mine	[8D-	_	.	.	.	.	.
=28	=28	=28	=28	=28	=28	=28	=28	=28
4D-]	_	4D-]	_	1G-Mm	G-:7 (G- B- D- F-)	.	.	voice
8r	.	4r	.	.	.	.	.	.
8D-	I'll	.	.	.	.	.	.	.
8F	tell	2r	.	.	.	.	.	.
8G-	you	.	.	.	.	.	.	.
8F	right	.	.	.	.	.	.	.
8A-	now,	.	.	.	.	.	.	.
=29	=29	=29	=29	=29	=29	=29	=29	=29
4r	.	1r	.	1G-Mm	G-:7 (G- B- D- F-)	.	.	voice
8d-	A-	.	.	.	.	.	.	.
8d-	-ny	.	.	.	.	.	.	.
8d-	trick	.	.	.	.	.	.	.
8c	in	.	.	.	.	.	.	.
8c	the	.	.	.	.	.	.	.
[8c-	book	.	.	.	.	.	.	.
=30	=30	=30	=30	=30	=30	=30	=30	=30
8c-]	_	1r	.	1D-Mm	D-:7 (D- F A- C-)	newline	52.127	voice
8D-	a-	.	.	.	.	.	.	.
8D-	-now,	.	.	.	.	.	.	.
[8F	ba	.	.	.	.	.	.	.
8F]	_	.	.	.	.	.	.	.
4.A-	by	.	.	.	.	.	.	.
=31	=31	=31	=31	=31	=31	=31	=31	=31
4r	.	1r	.	1D-Mm	D-:7 (D- F A- C-)	.	.	voice
8r	.	.	.	.	.	.	.	.
8D-	all	.	.	.	.	.	.	.
8d-	that	.	.	.	.	.	.	.
8d-	I	.	.	.	.	.	.	.
8c	can	.	.	.	.	.	.	.
[8c-	find	.	.	.	.	.	.	.
=32	=32	=32	=32	=32	=32	=32	=32	=32
2.c-_	_	1r	.	1D-Mm	D-:7 (D- F A- C-)	.	.	voice
8c-]	_	.	.	.	.	.	.	.
8r	.	.	.	.	.	.	.	.
=33	=33	=33	=33	=33	=33	=33	=33	=33
4r	.	1r	.	1D-Mm	D-:7 (D- F A- C-)	.	.	voice
8d-	Ev-	.	.	.	.	.	.	.
8d-	-'ry-	.	.	.	.	.	.	.
8d-	-bo-	.	.	.	.	.	.	.
4c	-dy's	.	.	.	.	.	.	.
[8c-	hust	.	.	.	.	.	.	.
=34	=34	=34	=34	=34	=34	=34	=34	=34
*	*	*	*	*>B_verse	*>B_verse	*>B_verse	*>B_verse	*>B_verse
8c-]	_	1r	.	1D-Mm	D-:7 (D- F A- C-)	newline	59.443	.
4D-	ling	.	.	.	.	.	.	.
8D-	a-	.	.	.	.	.	.	.
4F	-just	.	.	.	.	.	.	.
4A-	to	.	.	.	.	.	.	.
=35	=35	=35	=35	=35	=35	=35	=35	=35
4r	.	1r	.	1D-Mm	D-:7 (D- F A- C-)	.	.	.
8d-	have	.	.	.	.	.	.	.
8d-	a	.	.	.	.	.	.	.
8d-	lit-	.	.	.	.	.	.	.
4c	-tle	.	.	.	.	.	.	.
[8c-	scene	.	.	.	.	.	.	.
=36	=36	=36	=36	=36	=36	=36	=36	=36
2.c-]	_	1r	.	1D-Mm	D-:7 (D- F A- C-)	.	.	.
4r	.	.	.	.	.	.	.	.
=37	=37	=37	=37	=37	=37	=37	=37	=37
4r	.	1r	.	1D-Mm	D-:7 (D- F A- C-)	.	.	.
8d-	When	.	.	.	.	.	.	.
8d-	I	.	.	.	.	.	.	.
8d-	say	.	.	.	.	.	.	.
8d-	we'll	.	.	.	.	.	.	.
8c	be	.	.	.	.	.	.	.
[8c-	cool	.	.	.	.	.	.	.
=38	=38	=38	=38	=38	=38	=38	=38	=38
4.c-]	_	1r	.	1D-Mm	D-:7 (D- F A- C-)	.	.	.
8D-	I	.	.	.	.	.	.	.
4F	think	.	.	.	.	.	.	.
4A-	that	.	.	.	.	.	.	.
=39	=39	=39	=39	=39	=39	=39	=39	=39
4r	.	1r	.	1D-Mm	D-:7 (D- F A- C-)	.	.	.
8r	.	.	.	.	.	.	.	.
8E-	you	.	.	.	.	.	.	.
8d-	know	.	.	.	.	.	.	.
8d-	what	.	.	.	.	.	.	.
8c	I	.	.	.	.	.	.	.
[8c-	mean	.	.	.	.	.	.	.
=40	=40	=40	=40	=40	=40	=40	=40	=40
2.c-]	_	1r	.	1D-Mm	D-:7 (D- F A- C-)	.	.	.
4r	.	.	.	.	.	.	.	.
=41	=41	=41	=41	=41	=41	=41	=41	=41
4r	.	1r	.	1D-Mm	D-:7 (D- F A- C-)	.	.	.
8r	.	.	.	.	.	.	.	.
8E-	We	.	.	.	.	.	.	.
8d-	stood	.	.	.	.	.	.	.
8c	on	.	.	.	.	.	.	.
8c-	a	.	.	.	.	.	.	.
[8B-	beach	.	.	.	.	.	.	.
=42	=42	=42	=42	=42	=42	=42	=42	=42
8B-]	_	1r	.	1G-Mm	G-:7 (G- B- D- F-)	newline	73.873	.
4D-	at	.	.	.	.	.	.	.
[8G-	sun	.	.	.	.	.	.	.
8G-]	_	.	.	.	.	.	.	.
8B-	set	.	.	.	.	.	.	.
4r	.	.	.	.	.	.	.	.
=43	=43	=43	=43	=43	=43	=43	=43	=43
8r	.	1r	.	1G-Mm	G-:7 (G- B- D- F-)	.	.	.
8G-	do	.	.	.	.	.	.	.
8d-	you	.	.	.	.	.	.	.
8d-	re-	.	.	.	.	.	.	.
8c	-mem-	.	.	.	.	.	.	.
4c-	-ber	.	.	.	.	.	.	.
[8B-	when	.	.	.	.	.	.	.
=44	=44	=44	=44	=44	=44	=44	=44	=44
2B-_	_	1r	.	1G-Mm	G-:7 (G- B- D- F-)	.	.	.
8B-]	_	.	.	.	.	.	.	.
8r	.	.	.	.	.	.	.	.
4r	.	.	.	.	.	.	.	.
=45	=45	=45	=45	=45	=45	=45	=45	=45
2r	.	1r	.	1G-Mm	G-:7 (G- B- D- F-)	.	.	.
8d-	I	.	.	.	.	.	.	.
8d-	know	.	.	.	.	.	.	.
8c	a	.	.	.	.	.	.	.
[8c-	beach	.	.	.	.	.	.	.
=46	=46	=46	=46	=46	=46	=46	=46	=46
4c-]	_	1r	.	1D-Mm	D-:7 (D- F A- C-)	newline	81.174	.
8D-	where,	.	.	.	.	.	.	.
[8F	ba	.	.	.	.	.	.	.
8F]	_	.	.	.	.	.	.	.
4.A-	by	.	.	.	.	.	.	.
=47	=47	=47	=47	=47	=47	=47	=47	=47
4r	.	1r	.	1D-Mm	D-:7 (D- F A- C-)	.	.	.
8r	.	.	.	.	.	.	.	.
8D-	a-	.	.	.	.	.	.	.
8d-	-it	.	.	.	.	.	.	.
8d-	ne-	.	.	.	.	.	.	.
8c	-ver	.	.	.	.	.	.	.
[8c-	ends	.	.	.	.	.	.	.
=48	=48	=48	=48	=48	=48	=48	=48	=48
2c-]	_	1r	.	1D-Mm	D-:7 (D- F A- C-)	.	.	.
2r	.	.	.	.	.	.	.	.
=49	=49	=49	=49	=49	=49	=49	=49	=49
4A-	When	4c	When	1D-Mm	D-:7 (D- F A- C-)	.	.	.
4A-	you've	4c	you've	.	.	.	.	.
4A-	made	4c	made	.	.	.	.	.
4A-	your	4c	your	.	.	.	.	.
=50	=50	=50	=50	=50	=50	=50	=50	=50
*	*	*	*	*>C_chorus	*>C_chorus	*>C_chorus	*>C_chorus	*>C_chorus
2A-	mind	2c	mind	1A-Mm	A-:7 (A- C E- G-)	newline	88.235	.
4A-	up,	4c	up,	.	.	.	.	.
4A-	for-	4c	for-	.	.	.	.	.
=51	=51	=51	=51	=51	=51	=51	=51	=51
4d-	-e-	4d-	-e-	1A-Mm	A-:7 (A- C E- G-)	.	.	.
4D-	-ver	4D-	-ver	.	.	.	.	.
8D-	to	8D-	to	.	.	.	.	.
4D-	be	4D-	be	.	.	.	.	.
[8D-	mine,	[8D-	mine,	.	.	.	.	.
=52	=52	=52	=52	=52	=52	=52	=52	=52
4D-]	_	4D-]	_	1G-Mm	G-:7 (G- B- D- F-)	.	.	.
4r	.	4r	.	.	.	.	.	.
8F	hm-	2r	.	.	.	.	.	.
8G-	-hm-	.	.	.	.	.	.	.
8F	-hm-	.	.	.	.	.	.	.
8A-	-hm	.	.	.	.	.	.	.
=53	=53	=53	=53	=53	=53	=53	=53	=53
4r	.	1r	.	1G-Mm	G-:7 (G- B- D- F-)	.	.	.
8r	.	.	.	.	.	.	.	.
8D-	I'll	.	.	.	.	.	.	.
8d-	pick	.	.	.	.	.	.	.
8c	up	.	.	.	.	.	.	.
8c-	your	.	.	.	.	.	.	.
[8c-	hand	.	.	.	.	.	.	.
=54	=54	=54	=54	=54	=54	=54	=54	=54
4c-]	_	1r	.	1D-Mm	D-:7 (D- F A- C-)	newline	95.623	.
8D-	and	.	.	.	.	.	.	.
8D-	s-	.	.	.	.	.	.	.
8F	-low-	.	.	.	.	.	.	.
4.A-	-ly	.	.	.	.	.	.	.
=55	=55	=55	=55	=55	=55	=55	=55	=55
4r	.	1r	.	1D-Mm	D-:7 (D- F A- C-)	.	.	.
8d-	blow	.	.	.	.	.	.	.
8d-	your	.	.	.	.	.	.	.
8d-	lit-	.	.	.	.	.	.	.
4c	-tle	.	.	.	.	.	.	.
[8c-	mind	.	.	.	.	.	.	.
=56	=56	=56	=56	=56	=56	=56	=56	=56
2c-_	_	1r	.	1D-Mm	D-:7 (D- F A- C-)	.	.	.
8c-]	_	.	.	.	.	.	.	.
8r	.	.	.	.	.	.	.	.
4r	.	.	.	.	.	.	.	.
=57	=57	=57	=57	=57	=57	=57	=57	=57
4A-	'Cuz	4c	'Cuz	1D-Mm	D-:7 (D- F A- C-)	.	.	.
4A-	I've	4c	I've	.	.	.	.	.
4A-	made	4c	made	.	.	.	.	.
4A-	my	4c	my	.	.	.	.	.
=58	=58	=58	=58	=58	=58	=58	=58	=58
*	*	*	*	*>B_verse	*>B_verse	*>B_verse	*>B_verse	*>B_verse
2A-	mind	2c	mind	1D-Mm	D-:7 (D- F A- C-)	newline	102.838	.
4A-	up,	4c	up,	.	.	.	.	.
4A-	you're	4c	you're	.	.	.	.	.
=59	=59	=59	=59	=59	=59	=59	=59	=59
4d-	go-	4d-	go-	1D-Mm	D-:7 (D- F A- C-)	.	.	.
4D-	-ing	4D-	-ing	.	.	.	.	.
8D-	to	8D-	to	.	.	.	.	.
4D-	be	4D-	be	.	.	.	.	.
[8D-	mine	[8D-	mine	.	.	.	.	.
=60	=60	=60	=60	=60	=60	=60	=60	=60
4D-]	_	4D-]	_	1D-Mm	D-:7 (D- F A- C-)	.	.	.
8r	.	4r	.	.	.	.	.	.
8D-	I'll	.	.	.	.	.	.	.
8F	tell	2r	.	.	.	.	.	.
8G-	you	.	.	.	.	.	.	.
8F	right	.	.	.	.	.	.	.
8A-	now	.	.	.	.	.	.	.
=61	=61	=61	=61	=61	=61	=61	=61	=61
4r	.	1r	.	1D-Mm	D-:7 (D- F A- C-)	.	.	.
8d-	A-	.	.	.	.	.	.	.
8d-	-ny	.	.	.	.	.	.	.
8d-	trick	.	.	.	.	.	.	.
8c	in	.	.	.	.	.	.	.
8c	the	.	.	.	.	.	.	.
[8c-	book,	.	.	.	.	.	.	.
=62	=62	=62	=62	=62	=62	=62	=62	=62
8c-]	_	1r	.	1D-Mm	D-:7 (D- F A- C-)	.	.	.
8D-	a-	.	.	.	.	.	.	.
8D-	-now	.	.	.	.	.	.	.
[8F	ba	.	.	.	.	.	.	.
8F]	_	.	.	.	.	.	.	.
4.A-	by	.	.	.	.	.	.	.
=63	=63	=63	=63	=63	=63	=63	=63	=63
4r	.	1r	.	1D-Mm	D-:7 (D- F A- C-)	.	.	.
8r	.	.	.	.	.	.	.	.
8D-	oh,	.	.	.	.	.	.	.
8d-	that	.	.	.	.	.	.	.
8d-	I	.	.	.	.	.	.	.
8c	can	.	.	.	.	.	.	.
[8c-	find!	.	.	.	.	.	.	.
=64	=64	=64	=64	=64	=64	=64	=64	=64
1c-]	_	1r	.	1D-Mm	D-:7 (D- F A- C-)	.	.	.
=65	=65	=65	=65	=65	=65	=65	=65	=65
1r	.	1r	.	1D-Mm	D-:7 (D- F A- C-)	.	.	.
=66	=66	=66	=66	=66	=66	=66	=66	=66
1r	.	1r	.	1G-Mm	G-:7 (G- B- D- F-)	newline	117.171	.
=67	=67	=67	=67	=67	=67	=67	=67	=67
1r	.	1r	.	1G-Mm	G-:7 (G- B- D- F-)	.	.	.
=68	=68	=68	=68	=68	=68	=68	=68	=68
1r	.	1r	.	1G-Mm	G-:7 (G- B- D- F-)	.	.	.
=69	=69	=69	=69	=69	=69	=69	=69	=69
1r	.	1r	.	1G-Mm	G-:7 (G- B- D- F-)	.	.	.
=70	=70	=70	=70	=70	=70	=70	=70	=70
1r	.	1r	.	1D-Mm	D-:7 (D- F A- C-)	newline	124.483	.
=71	=71	=71	=71	=71	=71	=71	=71	=71
1r	.	1r	.	1D-Mm	D-:7 (D- F A- C-)	.	.	.
=72	=72	=72	=72	=72	=72	=72	=72	=72
1r	.	1r	.	1D-Mm	D-:7 (D- F A- C-)	.	.	.
=73	=73	=73	=73	=73	=73	=73	=73	=73
1r	.	1r	.	1D-Mm	D-:7 (D- F A- C-)	.	.	.
=74	=74	=74	=74	=74	=74	=74	=74	=74
*	*	*	*	*>C_chorus	*>C_chorus	*>C_chorus	*>C_chorus	*>C_chorus
1r	.	1r	.	1A-Mm	A-:7 (A- C E- G-)	newline	131.644	.
=75	=75	=75	=75	=75	=75	=75	=75	=75
1r	.	1r	.	1A-Mm	A-:7 (A- C E- G-)	.	.	.
=76	=76	=76	=76	=76	=76	=76	=76	=76
1r	.	1r	.	1G-Mm	G-:7 (G- B- D- F-)	.	.	.
=77	=77	=77	=77	=77	=77	=77	=77	=77
1r	.	1r	.	1G-Mm	G-:7 (G- B- D- F-)	.	.	.
=78	=78	=78	=78	=78	=78	=78	=78	=78
1r	.	1r	.	1D-Mm	D-:7 (D- F A- C-)	newline	138.923	.
=79	=79	=79	=79	=79	=79	=79	=79	=79
1r	.	1r	.	1D-Mm	D-:7 (D- F A- C-)	.	.	.
=80	=80	=80	=80	=80	=80	=80	=80	=80
1r	.	1r	.	1D-Mm	D-:7 (D- F A- C-)	.	.	.
=81	=81	=81	=81	=81	=81	=81	=81	=81
4r	.	1r	.	1D-Mm	D-:7 (D- F A- C-)	.	.	.
8d-	Su-	.	.	.	.	.	.	.
8d-	-per-	.	.	.	.	.	.	.
8d-	-man	.	.	.	.	.	.	.
8d-	or	.	.	.	.	.	.	.
8c	Green	.	.	.	.	.	.	.
[8c-	Lan	.	.	.	.	.	.	.
=82	=82	=82	=82	=82	=82	=82	=82	=82
*	*	*	*	*>C_chorus	*>C_chorus	*>C_chorus	*>C_chorus	*>C_chorus
4c-]	_	1r	.	1A-Mm	A-:7 (A- C E- G-)	newline	146.138	.
8D-	tern	.	.	.	.	.	.	.
[8F	ain't	.	.	.	.	.	.	.
8F]	got	.	.	.	.	.	.	.
8A-	_	.	.	.	.	.	.	.
4r	.	.	.	.	.	.	.	.
=83	=83	=83	=83	=83	=83	=83	=83	=83
4r	.	1r	.	1A-Mm	A-:7 (A- C E- G-)	.	.	.
8r	.	.	.	.	.	.	.	.
8E-	a-	.	.	.	.	.	.	.
8d-	-no-	.	.	.	.	.	.	.
8d-	-thing	.	.	.	.	.	.	.
8c	on	.	.	.	.	.	.	.
[8c-	me	.	.	.	.	.	.	.
=84	=84	=84	=84	=84	=84	=84	=84	=84
8c-]	_	1r	.	1G-Mm	G-:7 (G- B- D- F-)	.	.	.
8c-	uh	.	.	.	.	.	.	.
4r	.	.	.	.	.	.	.	.
2r	.	.	.	.	.	.	.	.
=85	=85	=85	=85	=85	=85	=85	=85	=85
4r	.	1r	.	1G-Mm	G-:7 (G- B- D- F-)	.	.	.
8d-	I	.	.	.	.	.	.	.
8d-	can	.	.	.	.	.	.	.
8d-	make	.	.	.	.	.	.	.
8c	like	.	.	.	.	.	.	.
8c	a	.	.	.	.	.	.	.
[8c-	tur	.	.	.	.	.	.	.
=86	=86	=86	=86	=86	=86	=86	=86	=86
8c-]	_	1r	.	1D-Mm	D-:7 (D- F A- C-)	newline	153.296	voice
4D-	tle	.	.	.	.	.	.	.
8D-	and	.	.	.	.	.	.	.
4F	dive	.	.	.	.	.	.	.
4A-	for	.	.	.	.	.	.	.
=87	=87	=87	=87	=87	=87	=87	=87	=87
4r	.	1r	.	1D-Mm	D-:7 (D- F A- C-)	.	.	voice
8r	.	.	.	.	.	.	.	.
8E-	your	.	.	.	.	.	.	.
8d-	pearls	.	.	.	.	.	.	.
8d-	in	.	.	.	.	.	.	.
8c	the	.	.	.	.	.	.	.
[8c-	sea	.	.	.	.	.	.	.
=88	=88	=88	=88	=88	=88	=88	=88	=88
4c-]	_	1r	.	1D-Mm	D-:7 (D- F A- C-)	.	.	voice
8r	.	.	.	.	.	.	.	.
8f	yep!	.	.	.	.	.	.	.
2r	.	.	.	.	.	.	.	.
=89	=89	=89	=89	=89	=89	=89	=89	=89
8r	.	1r	.	1D-Mm	D-:7 (D- F A- C-)	.	.	voice
8B-	A-	.	.	.	.	.	.	.
8d-	-you-	.	.	.	.	.	.	.
8c	-you-	.	.	.	.	.	.	.
8d-	-you	.	.	.	.	.	.	.
8c	can	.	.	.	.	.	.	.
8c-	just	.	.	.	.	.	.	.
[8B-	sit	.	.	.	.	.	.	.
=90	=90	=90	=90	=90	=90	=90	=90	=90
*	*	*	*	*>B_solo	*>B_solo	*>B_solo	*>B_solo	*>B_solo
8B-]	_	1r	.	1D-Mm	D-:7 (D- F A- C-)	newline	160.439	guitar
8Aq	_	.	.	.	.	.	.	.
4B-	there	.	.	.	.	.	.	.
8D-	while	.	.	.	.	.	.	.
4G-	thin-	.	.	.	.	.	.	.
4B-	-king	.	.	.	.	.	.	.
=91	=91	=91	=91	=91	=91	=91	=91	=91
4r	.	1r	.	1D-Mm	D-:7 (D- F A- C-)	.	.	guitar
8d-	on	.	.	.	.	.	.	.
8d-	your	.	.	.	.	.	.	.
8c	vel-	.	.	.	.	.	.	.
4c-	-vet	.	.	.	.	.	.	.
[8B-	throne	.	.	.	.	.	.	.
=92	=92	=92	=92	=92	=92	=92	=92	=92
2B-_	_	1r	.	1D-Mm	D-:7 (D- F A- C-)	.	.	guitar
8B-]	_	.	.	.	.	.	.	.
8r	.	.	.	.	.	.	.	.
4r	.	.	.	.	.	.	.	.
=93	=93	=93	=93	=93	=93	=93	=93	=93
2r	.	1r	.	1D-Mm	D-:7 (D- F A- C-)	.	.	guitar
8d-	'bout	.	.	.	.	.	.	.
8d-	all	.	.	.	.	.	.	.
8c	the	.	.	.	.	.	.	.
[8c-	rain	.	.	.	.	.	.	.
=94	=94	=94	=94	=94	=94	=94	=94	=94
8c-]	_	1r	.	1D-Mm	D-:7 (D- F A- C-)	.	.	guitar
4c-	bows	.	.	.	.	.	.	.
8D-	a-	.	.	.	.	.	.	.
8F	-you	.	.	.	.	.	.	.
4.A-	can	.	.	.	.	.	.	.
=95	=95	=95	=95	=95	=95	=95	=95	=95
4r	.	1r	.	1D-Mm	D-:7 (D- F A- C-)	.	.	guitar
8r	.	.	.	.	.	.	.	.
8D-	a-	.	.	.	.	.	.	.
8d-	-have	.	.	.	.	.	.	.
8d-	for	.	.	.	.	.	.	.
8c	your	.	.	.	.	.	.	.
[8c-	own	.	.	.	.	.	.	.
=96	=96	=96	=96	=96	=96	=96	=96	=96
2.c-]	_	1r	.	1D-Mm	D-:7 (D- F A- C-)	.	.	guitar
4r	.	.	.	.	.	.	.	.
=97	=97	=97	=97	=97	=97	=97	=97	=97
4A-	When	4c	_	1D-Mm	D-:7 (D- F A- C-)	.	.	guitar
4A-	you've	4c	_	.	.	.	.	.
4A-	made	4c	_	.	.	.	.	.
4A-	your	4c	_	.	.	.	.	.
=98	=98	=98	=98	=98	=98	=98	=98	=98
[4.A-	mind	2c	_	1G-Mm	G-:7 (G- B- D- F-)	newline	174.887	guitar
16A-]	_	.	.	.	.	.	.	.
[16A-	up,	.	.	.	.	.	.	.
8.A-]	_	4c	_	.	.	.	.	.
[16A-	for	.	.	.	.	.	.	.
4A-]	_	4c	_	.	.	.	.	.
=99	=99	=99	=99	=99	=99	=99	=99	=99
4d-	e-	4d-	_	1G-Mm	G-:7 (G- B- D- F-)	.	.	guitar
4D-	-ver	4D-	_	.	.	.	.	.
8D-	to	8D-	_	.	.	.	.	.
4D-	be	4D-	_	.	.	.	.	.
[8D-	mine,	[8D-	_	.	.	.	.	.
=100	=100	=100	=100	=100	=100	=100	=100	=100
4D-]	_	4D-]	_	1G-Mm	G-:7 (G- B- D- F-)	.	.	guitar
4r	.	4r	.	.	.	.	.	.
8F-	hm-	2r	.	.	.	.	.	.
8G-	-hm-	.	.	.	.	.	.	.
8F	-hm-	.	.	.	.	.	.	.
8G-	-hm	.	.	.	.	.	.	.
=101	=101	=101	=101	=101	=101	=101	=101	=101
4r	.	1r	.	1G-Mm	G-:7 (G- B- D- F-)	.	.	guitar
8r	.	.	.	.	.	.	.	.
8D-	I'll	.	.	.	.	.	.	.
8d-	pick	.	.	.	.	.	.	.
8c	up	.	.	.	.	.	.	.
8c-	your	.	.	.	.	.	.	.
[8c-	hand	.	.	.	.	.	.	.
=102	=102	=102	=102	=102	=102	=102	=102	=102
4c-]	_	1r	.	1D-Mm	D-:7 (D- F A- C-)	newline	182.168	guitar
8D-	and	.	.	.	.	.	.	.
8D-	s-	.	.	.	.	.	.	.
8F	-low-	.	.	.	.	.	.	.
4.A-	-ly	.	.	.	.	.	.	.
=103	=103	=103	=103	=103	=103	=103	=103	=103
4r	.	1r	.	1D-Mm	D-:7 (D- F A- C-)	.	.	guitar
8d-	blow	.	.	.	.	.	.	.
8d-	your	.	.	.	.	.	.	.
8d-	lit-	.	.	.	.	.	.	.
4c	-tle	.	.	.	.	.	.	.
[8c-	mind	.	.	.	.	.	.	.
=104	=104	=104	=104	=104	=104	=104	=104	=104
2c-_	_	1r	.	1D-Mm	D-:7 (D- F A- C-)	.	.	guitar
8c-]	_	.	.	.	.	.	.	.
8r	.	.	.	.	.	.	.	.
4r	.	.	.	.	.	.	.	.
=105	=105	=105	=105	=105	=105	=105	=105	=105
4A-	When	4c	When	1D-Mm	D-:7 (D- F A- C-)	.	.	guitar
4A-	you've	4c	you've	.	.	.	.	.
4A-	made	4c	made	.	.	.	.	.
4A-	your	4c	your	.	.	.	.	.
=106	=106	=106	=106	=106	=106	=106	=106	=106
*	*	*	*	*>C_solo	*>C_solo	*>C_solo	*>C_solo	*>C_solo
2A-	mind	2c	mind	1A-Mm	A-:7 (A- C E- G-)	newline	189.299	guitar
4A-	up,	4c	up,	.	.	.	.	.
4A-	for-	4c	for-	.	.	.	.	.
=107	=107	=107	=107	=107	=107	=107	=107	=107
4d-	-e-	4d-	-e-	1A-Mm	A-:7 (A- C E- G-)	.	.	guitar
4D-	-ver	4D-	-ver	.	.	.	.	.
8D-	to	8D-	to	.	.	.	.	.
4D-	be	4D-	be	.	.	.	.	.
[8D-	mine	[8D-	mine	.	.	.	.	.
=108	=108	=108	=108	=108	=108	=108	=108	=108
4D-]	_	4D-]	_	1G-Mm	G-:7 (G- B- D- F-)	.	.	guitar
8r	.	4r	.	.	.	.	.	.
8D-	I'll	.	.	.	.	.	.	.
8F	pick	2r	.	.	.	.	.	.
8G-	up	.	.	.	.	.	.	.
8F	your	.	.	.	.	.	.	.
8A-	hand	.	.	.	.	.	.	.
=109	=109	=109	=109	=109	=109	=109	=109	=109
4r	.	1r	.	1G-Mm	G-:7 (G- B- D- F-)	.	.	guitar
8r	.	.	.	.	.	.	.	.
8D-	I'll	.	.	.	.	.	.	.
8d-	pick	.	.	.	.	.	.	.
8c	up	.	.	.	.	.	.	.
8c-	your	.	.	.	.	.	.	.
8c-	hand!	.	.	.	.	.	.	.
*-	*-	*-	*-	*	*	*	*
=109	=109	=109	=109	=109
1D-Mm	D-:7 (D- F A- C-)	newline	196.392	guitar
=110	=110	=110	=110	=110
1D-Mm	D-:7 (D- F A- C-)	.	.	guitar
=111	=111	=111	=111	=111
1D-Mm	D-:7 (D- F A- C-)	.	.	guitar
=112	=112	=112	=112	=112
1D-Mm	D-:7 (D- F A- C-)	.	.	guitar
=113	=113	=113	=113	=113
*>B_verse	*>B_verse	*>B_verse	*>B_verse	*>B_verse
1D-Mm	D-:7 (D- F A- C-)	newline	203.604	voice
=114	=114	=114	=114	=114
1D-Mm	D-:7 (D- F A- C-)	.	.	voice
=115	=115	=115	=115	=115
1D-Mm	D-:7 (D- F A- C-)	.	.	voice
=116	=116	=116	=116	=116
1D-Mm	D-:7 (D- F A- C-)	.	.	voice
=117	=117	=117	=117	=117
1D-Mm	D-:7 (D- F A- C-)	.	.	voice
=118	=118	=118	=118	=118
1D-Mm	D-:7 (D- F A- C-)	.	.	voice
=119	=119	=119	=119	=119
1D-Mm	D-:7 (D- F A- C-)	.	.	voice
=120	=120	=120	=120	=120
1D-Mm	D-:7 (D- F A- C-)	.	.	voice
=121	=121	=121	=121	=121
1G-Mm	G-:7 (G- B- D- F-)	newline	218.007	voice
=122	=122	=122	=122	=122
1G-Mm	G-:7 (G- B- D- F-)	.	.	voice
=123	=123	=123	=123	=123
1G-Mm	G-:7 (G- B- D- F-)	.	.	voice
=124	=124	=124	=124	=124
1G-Mm	G-:7 (G- B- D- F-)	.	.	voice
=125	=125	=125	=125	=125
1D-Mm	D-:7 (D- F A- C-)	newline	225.238	voice
=126	=126	=126	=126	=126
1D-Mm	D-:7 (D- F A- C-)	.	.	voice
=127	=127	=127	=127	=127
1D-Mm	D-:7 (D- F A- C-)	.	.	voice
=128	=128	=128	=128	=128
1D-Mm	D-:7 (D- F A- C-)	.	.	voice
=129	=129	=129	=129	=129
*>C_chorus	*>C_chorus	*>C_chorus	*>C_chorus	*>C_chorus
1A-Mm	A-:7 (A- C E- G-)	newline	232.429	voice
=130	=130	=130	=130	=130
1A-Mm	A-:7 (A- C E- G-)	.	.	voice
=131	=131	=131	=131	=131
1G-Mm	G-:7 (G- B- D- F-)	.	.	voice
=132	=132	=132	=132	=132
1G-Mm	G-:7 (G- B- D- F-)	.	.	voice
=133	=133	=133	=133	=133
1D-Mm	D-:7 (D- F A- C-)	newline	239.451	voice
=134	=134	=134	=134	=134
1D-Mm	D-:7 (D- F A- C-)	.	.	voice
=135	=135	=135	=135	=135
1D-Mm	D-:7 (D- F A- C-)	.	.	voice
=136	=136	=136	=136	=136
1D-Mm	D-:7 (D- F A- C-)	.	.	voice
=137	=137	=137	=137	=137
*>C_chorus	*>C_chorus	*>C_chorus	*>C_chorus	*>C_chorus
1A-Mm	A-:7 (A- C E- G-)	newline	246.597	voice
=138	=138	=138	=138	=138
1A-Mm	A-:7 (A- C E- G-)	.	.	voice
=139	=139	=139	=139	=139
1G-Mm	G-:7 (G- B- D- F-)	.	.	voice
=140	=140	=140	=140	=140
1G-Mm	G-:7 (G- B- D- F-)	.	.	voice
=141	=141	=141	=141	=141
1D-Mm	D-:7 (D- F A- C-)	newline	253.918	voice
=142	=142	=142	=142	=142
1D-Mm	D-:7 (D- F A- C-)	.	.	voice
=143	=143	=143	=143	=143
1D-Mm	D-:7 (D- F A- C-)	.	.	voice
=144	=144	=144	=144	=144
1D-Mm	D-:7 (D- F A- C-)	.	.	voice
=145	=145	=145	=145	=145
*>B_outro	*>B_outro	*>B_outro	*>B_outro	*>B_outro
1D-Mm	D-:7 (D- F A- C-)	newline	261.188	guitar
=146	=146	=146	=146	=146
1D-Mm	D-:7 (D- F A- C-)	.	.	guitar
=147	=147	=147	=147	=147
1D-Mm	D-:7 (D- F A- C-)	.	.	guitar
=148	=148	=148	=148	=148
1D-Mm	D-:7 (D- F A- C-)	.	.	guitar
=149	=149	=149	=149	=149
1D-Mm	D-:7 (D- F A- C-)	newline	268.415	fadeout, guitar
=150	=150	=150	=150	=150
1D-Mm	D-:7 (D- F A- C-)	.	.	fadeout, guitar
=151	=151	=151	=151	=151
1D-Mm	D-:7 (D- F A- C-)	.	.	fadeout, guitar
=152	=152	=152	=152	=152
1D-Mm	D-:7 (D- F A- C-)	.	.	fadeout, guitar
1r;	r	.	275.495	r
1r;	r	.	279.85	r
*-	*-	*-	*-	*-
!!!BillboardChartDate: 1966/08/13
!!!BillboardPeak: 1
!!!BillboardWeeksOnChart: 13
!!!COC: Donovan
!!!ENC: Nathaniel Condit-Schultz
!!!EST: Awating manual error checking and editing.
!!!OTL: Sunshine Superman
!!!RDF**chordsym: original McGill chord annotation + (implied pitch class set, with bass pitch in first position)
!!!RDF**harmony: **recip + pitch class of root + harmonic quality
!!!RDF**leadinstrument: original McGill primary instrumentation annotation
!!!RDF**phrase: newline = linebreak in original McGill transcription
!!!RDF**timestamp: McGill audio timestamp in seconds
!!!RDT: 2017/01/12/
!!!SampleActualRank: 20
!!!SampleID#: 0383
!!!SampleTargetRank: 19
